X: 23780
T: Little Harvest Rose, The
R: barndance
M: 4/4
K: Dmajor
(DE)|F2 (GF) E2 (FE)|D2 d2 d2 f2|e2 (fe) (dc) (BA)|A2 (cB) A2 (DE)|
(F3/2A/2) (GF) (E3/2G/2) (FE)|D2 d2 d2 f2|(eg) (fe) (dc) (BA)|A2 ^G2 A2 (dc)|
(cB) (BA) (AF) (ED)|(FA) d2 d3 B|(AG) (FE) (GF) (ED)|B,2 (DE) D2 (dc)|
(cB) (BA) (AF) (ED)|(FA) d2 d3 B|A2 (FE) (GF) (ED)|B,2 (DE) D2 z2:|

